!!!COM: Schiørring, Niels
!!!CDT: 1743-1798
!!!OPR@@DA: Choral-Bog
!!!ONM: 37
!!!OTL@@DA: Hvo veed, hvor nær mig er min Ende
**kern	**fb	**kern	**kern	**kern	**kern	**kern	**kern	**kern
*part6	*part6	*part6	*part5	*part5	*part4	*part3	*part2	*part1
*staff8	*	*staff7	*staff6	*staff5	*staff4	*staff3	*staff2	*staff1
*clefF4	*	*clefC1	*clefF4	*clefC1	*clefF4	*clefC4	*clefC3	*clefC1
*mclefF4	*	*mclefG2	*mclefF4	*mclefG2	*mclefF4	*mclefGv2	*mclefG2	*mclefG2
*k[]	*	*k[]	*k[]	*k[]	*k[]	*k[]	*k[]	*k[]
*M4/4	*	*M4/4	*M4/4	*M4/4	*M4/4	*M4/4	*M4/4	*M4/4
*met(c)	*	*met(c)	*met(c)	*met(c)	*met(c)	*met(c)	*met(c)	*met(c)
*MM180	*	*MM180	*MM180	*MM180	*MM180	*MM180	*MM180	*MM180
*	*above	*	*	*	*	*	*	*
*	*slash	*	*	*	*	*	*	*
*	*	*	*^	*^	*	*	*	*
*	*	*	*	*	*	*^	*	*	*	*
=1	=1	=1	=1	=1	=1	=1	=1	=1	=1	=1	=1
2C	.	2cc	2c	2C	2cc	2g	2e\	2C	2e	2g	2cc
*	*	*	*	*	*	*v	*v	*	*	*	*
=2	=2	=2	=2	=2	=2	=2	=2	=2	=2	=2
1E	6	2cc	1c	1E	2cc	2g	2E	2c	2g	2cc
.	.	2g	.	.	2g	[2g	2E	2c	[2g	2g
=3	=3	=3	=3	=3	=3	=3	=3	=3	=3	=3
2F	9	2a	2c	2F	2a	2g]	2F	2c	2g]	2a
2D	3	2a	2d	2D	2a	2f	2D	2d	2f	2a
=4	=4	=4	=4	=4	=4	=4	=4	=4	=4	=4
2BB	6	2g	1G	2BB	2g	2d	2BB	2G	2d	2g
2GG	7	2f	.	2GG	2f	2B	2GG	2G	2B	2f
=5	=5	=5	=5	=5	=5	=5	=5	=5	=5	=5
1C	.	2e	2G	2C	2e	2c	2C	2G	2c	2e
.	.	2c	2E	2C	2c	2G	2C	2E	2G	2c
=6	=6	=6	=6	=6	=6	=6	=6	=6	=6	=6
2r	.	2r	2r	2r	2r	2r	2r	2r	2r	2r
2C	.	2e	2G	2C	2e	2c	2C	2G	2c	2e
=7	=7	=7	=7	=7	=7	=7	=7	=7	=7	=7
2BB	5	2f	1G	2BB	2f	2d	2BB	2G	2d	2f
[2C	.	2e	.	[2C	2e	2c	[2C	2G	2c	2e
=8	=8	=8	=8	=8	=8	=8	=8	=8	=8	=8
4C]	#4|	2d	4F#X	4C]	2d	4A	(4C]	(4F#X	(4A	2d
4BB	6_	.	[2.G	4BB	.	2.B	4BB)	4G)	4G)	.
4E	.	2g	.	4E	2g	.	(4E	[2G	2B	2g
4D	.	.	.	4D	.	.	4D)	.	.	.
=9	=9	=9	=9	=9	=9	=9	=9	=9	=9	=9
2C	6 5	2a	2G]	2C	2a	2e	2C	2G]	2e	2a
2D	#	2a	4F#X	2D	2a	2d	2D	2F#X	(4d	2a
.	.	.	4c	.	.	.	.	.	4c)	.
=10	=10	=10	=10	=10	=10	=10	=10	=10	=10	=10
2GG	.	2g	2B	2G	2g	2d	2GG	2G	2B	2g
=11:|!	=11:|!	=11:|!	=11:|!	=11:|!	=11:|!	=11:|!	=11:|!	=11:|!	=11:|!	=11:|!
2G	.	2g	2B	2G	2g	2d	2G	2B	2d	2g
=12	=12	=12	=12	=12	=12	=12	=12	=12	=12	=12
2E	6	2cc	2c	2E	2cc	2g	2E	2c	2g	2cc
*	*	*	*	*	*	*^	*	*	*	*
2D	6	2dd	2B	2D	2dd	2b	2f\	2D	2B	2f	2dd
=13	=13	=13	=13	=13	=13	=13	=13	=13	=13	=13	=13
2C	.	2ee	2G	2C	2ee	2cc	2g\	2C	2c	2g	2ee
4F	5_	2cc	2A	4F	2cc	[2cc	2f\	(4F	[2c	2a	2cc
4E	.	.	.	4E	.	.	.	4E)	.	.	.
=14	=14	=14	=14	=14	=14	=14	=14	=14	=14	=14	=14
2D	7	2ff	2d	2D	2ff	4cc]	2f\	2D	(4c]	2f	2ff
.	6	.	.	.	.	4b	.	.	4B)	.	.
2C	.	2ee	2G	2C	2ee	[2cc	2g\	2C	[2c	2g	2ee
=15	=15	=15	=15	=15	=15	=15	=15	=15	=15	=15	=15
2GG	4	2dd	2G	2GG	2dd	4cc]	2g\	2GG	(4c]	2g	2dd
.	3	.	.	.	.	4b	.	.	4B)	.	.
*	*	*	*	*	*	*v	*v	*	*	*	*
2GG#X	6	2ee	2e>	2GG#X	2ee	2b	2GG#X	2B	2e	2ee
=16	=16	=16	=16	=16	=16	=16	=16	=16	=16	=16
2AA	.	2cc	2e>	2AA	2cc	2a	2AA	2c	2e	2cc
[2F	.	2a	2c	[2F	2a	2f	[2F	2c	2f	2a
=17	=17	=17	=17	=17	=17	=17	=17	=17	=17	=17
2F]	2	2g	2B	2F]	2g	2d	2F]	2B	2d	2g
2E	6	2cc	2c	2E	2cc	2g	2E	2c	2g	2cc
=18	=18	=18	=18	=18	=18	=18	=18	=18	=18	=18
2F	6 5	2cc	2A	2F	2cc	2.d	2F	2A	2d	2cc
2G	.	2b	2G	2G	2b	.	2G	2G	2d	2b
.	.	.	.	.	.	4f	.	.	.	.
=19	=19	=19	=19	=19	=19	=19	=19	=19	=19	=19
2C	.	2cc	2G	2C	2cc	2e	2C	2G	2e	2cc
*	*	*	*v	*v	*	*	*	*	*	*
*	*	*	*	*v	*v	*	*	*	*
==	==	==	==	==	==	==	==	==
*-	*-	*-	*-	*-	*-	*-	*-	*-
!!!system-decoration: {(s1,s2,s3,s4)}{(s5,s6)}{(s7,s8)}
!!!RDF**kern: > = above
!!!RDF**kern: < = below
!!!AGN: chorale
!!!EED: Derek Remeš
!!!EED2: Victor Phan
!!!END: 2023/11/28
!!!ENC: Wolfgang Drescher
!!!EEV: 2023/12/12
!!!title: @{ONM}. @{OTL}
!!!verovio: mnumInterval 1